public/imgs/story/story-partener-2.svg

<svg fill="none" height="89" viewBox="0 0 89 89" width="89" xmlns="http://www.w3.org/2000/svg" xmlns:xlink="http://www.w3.org/1999/xlink"><clipPath id="a"><path d="m26.1094 20h40v53h-40z"/></clipPath><circle cx="44.2225" cy="44.2225" fill="#000" r="44.2225"/><g clip-path="url(#a)"><path clip-rule="evenodd" d="m43.2494 49.4467c-6.32 0-11.42-5.2752-11.42-11.7663s5.12-11.7663 11.42-11.7663 11.42 5.2752 11.42 11.7663c.02 6.4911-5.1 11.7663-11.42 11.7663zm0-29.4467c9.46 0 17.14 7.9129 17.14 17.6598s-7.68 17.6598-17.14 17.6598-17.14-7.9129-17.14-17.6598 7.68-17.6598 17.14-17.6598zm16.3 36.2057c1.12 1.1539 1.12 3.0085 0 4.1625l-11.42 11.7663c-1.12 1.154-2.92 1.154-4.04 0-1.12-1.1539-1.12-3.0085 0-4.1625l11.42-11.7663c1.12-1.154 2.94-1.154 4.04 0zm6.56-33.259c0 1.6279-1.28 2.9468-2.86 2.9468s-2.86-1.3189-2.86-2.9468 1.28-2.9467 2.86-2.9467 2.86 1.3188 2.86 2.9467z" fill="#fff" fill-rule="evenodd"/></g></svg>

<svg width="89" height="89" viewBox="0 0 89 89" fill="none" xmlns="http://www.w3.org/2000/svg">
<circle cx="44.2225" cy="44.2225" r="44.2225" fill="black"/>
<g clip-path="url(#clip0_5686_17638)">
<path fill-rule="evenodd" clip-rule="evenodd" d="M43.2494 49.4467C36.9294 49.4467 31.8294 44.1715 31.8294 37.6804C31.8294 31.1893 36.9494 25.9141 43.2494 25.9141C49.5494 25.9141 54.6694 31.1893 54.6694 37.6804C54.6894 44.1715 49.5694 49.4467 43.2494 49.4467ZM43.2494 20C52.7094 20 60.3894 27.9129 60.3894 37.6598C60.3894 47.4067 52.7094 55.3196 43.2494 55.3196C33.7894 55.3196 26.1094 47.4067 26.1094 37.6598C26.1094 27.9129 33.7894 20 43.2494 20ZM59.5494 56.2057C60.6694 57.3596 60.6694 59.2142 59.5494 60.3682L48.1294 72.1345C47.0094 73.2885 45.2094 73.2885 44.0894 72.1345C42.9694 70.9806 42.9694 69.126 44.0894 67.972L55.5094 56.2057C56.6294 55.0517 58.4494 55.0517 59.5494 56.2057ZM66.1094 22.9467C66.1094 24.5746 64.8294 25.8935 63.2494 25.8935C61.6694 25.8935 60.3894 24.5746 60.3894 22.9467C60.3894 21.3188 61.6694 20 63.2494 20C64.8294 20 66.1094 21.3188 66.1094 22.9467Z" fill="white"/>
</g>
<defs>
<clipPath id="clip0_5686_17638">
<rect width="40" height="53" fill="white" transform="translate(26.1094 20)"/>
</clipPath>
</defs>
</svg>
